;FLAVOR:Marlin
;TIME:5845
;Filament used: 3.53017m
;Layer height: 0.2
;MINX:36.117
;MINY:30.612
;MINZ:0.17
;MAXX:173.882
;MAXY:191.376
;MAXZ:1.17
;Generated with Cura_SteamEngine 4.4.1
M140 S70
M105
M190 S70
M104 S200
M105
M109 S200
M82 ;absolute extrusion mode
G21 ;metric values
G90 ;absolute positioning
M82 ;set extruder to absolute mode
M107 ;start with the fan off
G28 X0 Y0 ;move X/Y to min endstops
G28 Z0 ;move Z to min endstops
G1 Z15.0 F100 ;move the platform down 15mm
G92 E0 ;zero the extruded length
G1 F200 E3 ;extrude 3mm of feed stock
G92 E0 ;zero the extruded length again
G1 F100
G0 Y20 F100
M117 Printing...
G5
G92 E0
G92 E0
G1 F2400 E-6
;LAYER_COUNT:6
;LAYER:0
M107
M204 S3000
M205 X10 Y10
G1 F600 Z0.245
G0 F1200 X38.35 Y44.421 Z0.245
M204 S1800
M205 X8 Y8
;TYPE:SKIRT
G1 F600 Z0.17
G1 F2400 E0
G1 X38.906 Y43.972 E0.02829
G1 X39.232 Y43.753 E0.04383
G1 X39.456 Y43.612 E0.05431
G1 X40.081 Y43.265 E0.0826
G1 X40.742 Y42.99 E0.11094
G1 X41.429 Y42.791 E0.13924
G1 X42.374 Y42.647 E0.17708
G1 X45.243 Y42.426 E0.29097
G1 X47.912 Y42.153 E0.39716
G1 X50.512 Y41.813 E0.50094
G1 X53.171 Y41.387 E0.60753
G1 X55.721 Y40.905 E0.71024
G1 X58.298 Y40.342 E0.81464
G1 X60.92 Y39.692 E0.92156
G1 X63.453 Y38.986 E1.02564
G1 X65.96 Y38.21 E1.12951
G1 X68.498 Y37.345 E1.23564
G1 X70.953 Y36.432 E1.33931
G1 X73.423 Y35.431 E1.44479
G1 X75.836 Y34.373 E1.54907
G1 X78.241 Y33.237 E1.65435
G1 X80.631 Y32.024 E1.76043
G1 X81.899 Y31.355 E1.81717
G1 X82.549 Y31.057 E1.84547
G1 X83.229 Y30.834 E1.8738
G1 X83.929 Y30.688 E1.9021
G1 X84.746 Y30.618 E1.93455
G1 X85.022 Y30.612 E1.94548
G1 X85.737 Y30.636 E1.9738
G1 X86.367 Y30.725 E1.99898
G1 X87.186 Y30.882 E2.03198
G1 X89.874 Y31.363 E2.14006
G1 X92.496 Y31.757 E2.24501
G1 X95.096 Y32.072 E2.34867
G1 X97.759 Y32.319 E2.45452
G1 X100.395 Y32.488 E2.55906
G1 X103.037 Y32.583 E2.6637
G1 X105.68 Y32.603 E2.76831
G1 X108.361 Y32.547 E2.87445
G1 X110.956 Y32.421 E2.97728
G1 X113.64 Y32.212 E3.08383
G1 X116.233 Y31.937 E3.18704
G1 X118.859 Y31.584 E3.29191
G1 X122.759 Y30.92 E3.44849
G1 X123.588 Y30.761 E3.4819
G1 X124.297 Y30.665 E3.51022
G1 X124.705 Y30.647 E3.52638
G1 X124.994 Y30.643 E3.53782
G1 X125.709 Y30.673 E3.56615
G1 X126.416 Y30.782 E3.59446
G1 X127.106 Y30.97 E3.62276
G1 X127.913 Y31.301 E3.65729
G1 X128.195 Y31.44 E3.66973
G1 X128.327 Y31.508 E3.67561
G1 X130.746 Y32.771 E3.78362
G1 X133.138 Y33.936 E3.88892
G1 X135.547 Y35.025 E3.99356
G1 X138.006 Y36.056 E4.09909
G1 X140.452 Y36.997 E4.20282
G1 X142.946 Y37.879 E4.30752
G1 X145.493 Y38.699 E4.41343
G1 X148.013 Y39.432 E4.5173
G1 X150.58 Y40.101 E4.6223
G1 X153.152 Y40.696 E4.72678
G1 X155.749 Y41.216 E4.83161
G1 X158.368 Y41.666 E4.93679
G1 X160.99 Y42.04 E5.04162
G1 X163.604 Y42.338 E5.14575
G1 X166.36 Y42.574 E5.25523
G1 X167.547 Y42.658 E5.30233
G1 X168.257 Y42.749 E5.33066
G1 X168.952 Y42.918 E5.35897
G1 X169.624 Y43.163 E5.38728
G1 X170.464 Y43.601 E5.42478
G1 X170.732 Y43.767 E5.43725
G1 X171.318 Y44.177 E5.46556
G1 X171.855 Y44.65 E5.49388
G1 X172.335 Y45.18 E5.52218
G1 X172.754 Y45.76 E5.5505
G1 X172.984 Y46.151 E5.56846
G1 X173.102 Y46.368 E5.57823
G1 X173.409 Y47.014 E5.60654
G1 X173.641 Y47.691 E5.63487
G1 X173.796 Y48.389 E5.66317
G1 X173.872 Y49.1 E5.69147
G1 X173.879 Y49.516 E5.70794
G1 X173.875 Y49.797 E5.71906
G1 X173.825 Y50.511 E5.74739
G1 X173.705 Y51.177 E5.77417
G1 X173.577 Y51.719 E5.79622
G1 X172.996 Y54.303 E5.90104
G1 X172.475 Y56.968 E6.00852
G1 X172.056 Y59.505 E6.11029
G1 X171.692 Y62.155 E6.21616
G1 X171.407 Y64.789 E6.32102
G1 X171.197 Y67.422 E6.42557
G1 X171.059 Y70.095 E6.53151
G1 X170.999 Y72.703 E6.63476
G1 X171.014 Y75.38 E6.74071
G1 X171.101 Y77.993 E6.84419
G1 X171.266 Y80.655 E6.94975
G1 X171.505 Y83.297 E7.05475
G1 X171.817 Y85.923 E7.15942
G1 X172.204 Y88.542 E7.2642
G1 X172.662 Y91.136 E7.36846
G1 X173.189 Y93.693 E7.47179
G1 X173.611 Y95.487 E7.54473
G1 X173.629 Y95.568 E7.54802
G1 X173.737 Y96.055 E7.56776
G1 X173.853 Y96.761 E7.59608
G1 X173.882 Y97.739 E7.63481
G1 X173.871 Y97.975 E7.64416
G1 X173.798 Y98.686 E7.67245
G1 X173.542 Y99.723 E7.71472
G1 X173.213 Y100.698 E7.75545
G1 X173.17 Y100.822 E7.76064
G1 X172.169 Y103.6 E7.87752
G1 X172.147 Y103.659 E7.88001
G1 X171.81 Y104.566 E7.91831
G1 X171.787 Y104.627 E7.92089
G1 X171.037 Y106.584 E8.00384
G1 X171.018 Y106.634 E8.00595
G1 X170.692 Y107.464 E8.04125
G1 X170.673 Y107.511 E8.04325
G1 X169.691 Y109.954 E8.14747
G1 X169.666 Y110.015 E8.15008
G1 X169.257 Y111.003 E8.1924
G1 X169.234 Y111.059 E8.19479
G1 X168.031 Y113.889 E8.3165
G1 X168.012 Y113.934 E8.31844
G1 X167.699 Y114.655 E8.34955
G1 X167.666 Y114.729 E8.35275
G1 X167.48 Y115.143 E8.37072
G1 X167.464 Y115.177 E8.37221
G1 X166.199 Y117.949 E8.4928
G1 X166.158 Y118.039 E8.49672
G1 X165.547 Y119.325 E8.55307
G1 X165.505 Y119.41 E8.55682
G1 X164.312 Y121.828 E8.66354
G1 X164.28 Y121.893 E8.66641
G1 X163.711 Y123.014 E8.71617
G1 X163.671 Y123.091 E8.7196
G1 X163.163 Y124.059 E8.76287
G1 X163.129 Y124.124 E8.76577
G1 X162.541 Y125.214 E8.81479
G1 X162.503 Y125.283 E8.81791
G1 X162.012 Y126.167 E8.85793
G1 X161.979 Y126.225 E8.86057
G1 X161.469 Y127.121 E8.90138
G1 X161.433 Y127.184 E8.90425
G1 X160.37 Y129.003 E8.98764
G1 X160.336 Y129.06 E8.99027
G1 X159.81 Y129.939 E9.03081
G1 X159.778 Y129.992 E9.03326
G1 X158.81 Y131.575 E9.1067
G1 X158.774 Y131.633 E9.1094
G1 X158.099 Y132.711 E9.15974
G1 X158.062 Y132.769 E9.16247
G1 X157.352 Y133.876 E9.21452
G1 X157.319 Y133.928 E9.21695
G1 X156.757 Y134.786 E9.25755
G1 X156.726 Y134.833 E9.25978
G1 X156.252 Y135.543 E9.29357
G1 X156.19 Y135.634 E9.29793
G1 X155.306 Y136.91 E9.35936
G1 X155.251 Y136.987 E9.36311
G1 X154.421 Y138.148 E9.4196
G1 X154.346 Y138.251 E9.42464
G1 X153.093 Y139.932 E9.50762
G1 X152.969 Y140.093 E9.51567
G1 X152.419 Y140.784 E9.55062
G1 X151.943 Y141.318 E9.57893
G1 X151.411 Y141.795 E9.60722
G1 X151.099 Y142.029 E9.62265
G1 X150.889 Y142.177 E9.63282
G1 X150.008 Y142.698 E9.67333
G1 X149.35 Y143.019 E9.70231
G1 X149.261 Y143.062 E9.70622
G1 X148.247 Y143.537 E9.75054
G1 X145.901 Y144.719 E9.85451
G1 X143.577 Y145.974 E9.95905
G1 X141.269 Y147.305 E10.0645
G1 X139.04 Y148.677 E10.1681
G1 X136.811 Y150.136 E10.27354
G1 X134.638 Y151.649 E10.37834
G1 X132.511 Y153.22 E10.483
G1 X130.431 Y154.85 E10.58759
G1 X128.394 Y156.54 E10.69235
G1 X126.393 Y158.301 E10.79785
G1 X124.449 Y160.109 E10.90293
G1 X122.597 Y161.933 E11.00581
G1 X120.742 Y163.865 E11.11182
G1 X118.965 Y165.826 E11.21656
G1 X117.248 Y167.83 E11.32101
G1 X115.573 Y169.902 E11.42646
G1 X113.959 Y172.018 E11.5318
G1 X112.979 Y173.366 E11.59776
G1 X112.413 Y174.16 E11.63635
G1 X112.333 Y174.269 E11.6417
G1 X111.092 Y175.933 E11.72386
G1 X110.969 Y176.093 E11.73185
G1 X110.419 Y176.784 E11.76681
G1 X109.943 Y177.318 E11.79512
G1 X109.411 Y177.795 E11.8234
G1 X109.122 Y178.013 E11.83773
G1 X108.921 Y178.156 E11.84749
G1 X108.316 Y178.537 E11.87579
G1 X107.672 Y178.849 E11.90411
G1 X106.998 Y179.087 E11.9324
G1 X106.404 Y179.229 E11.95658
G1 X106.172 Y179.273 E11.96592
G1 X105.514 Y179.363 E11.99221
G1 X104.942 Y179.411 E12.01493
G1 X104.845 Y179.418 E12.01878
G1 X103.253 Y179.527 E12.08194
G1 X100.628 Y179.782 E12.18632
G1 X97.982 Y180.115 E12.29187
G1 X95.398 Y180.513 E12.39535
G1 X92.778 Y180.994 E12.50079
G1 X90.203 Y181.542 E12.60499
G1 X87.59 Y182.176 E12.71141
G1 X85.073 Y182.862 E12.81466
G1 X82.521 Y183.637 E12.92023
G1 X80.013 Y184.476 E13.0249
G1 X77.55 Y185.379 E13.12873
G1 X75.064 Y186.37 E13.23465
G1 X72.615 Y187.428 E13.34024
G1 X70.25 Y188.531 E13.44353
G1 X67.883 Y189.715 E13.54828
G1 X67.518 Y189.912 E13.56469
G1 X67.45 Y189.948 E13.56774
G1 X66.186 Y190.609 E13.6242
G1 X65.534 Y190.905 E13.65254
G1 X64.854 Y191.126 E13.68084
G1 X64.494 Y191.21 E13.69547
G1 X64.297 Y191.25 E13.70342
G1 X63.589 Y191.353 E13.73174
G1 X62.874 Y191.376 E13.76006
G1 X61.929 Y191.284 E13.79763
G1 X61.687 Y191.242 E13.80736
G1 X60.99 Y191.08 E13.83568
G1 X60.315 Y190.842 E13.86401
G1 X59.672 Y190.53 E13.89229
G1 X59.067 Y190.148 E13.92061
G1 X58.528 Y189.718 E13.9479
G1 X58.257 Y189.477 E13.96226
G1 X57.581 Y188.777 E14.00077
G1 X57.446 Y188.614 E14.00915
G1 X57.316 Y188.452 E14.01737
G1 X56.92 Y187.941 E14.04296
G1 X56.826 Y187.817 E14.04912
G1 X55.693 Y186.279 E14.12473
G1 X55.624 Y186.183 E14.12941
G1 X54.873 Y185.123 E14.18082
G1 X54.803 Y185.022 E14.18569
G1 X53.704 Y183.406 E14.26304
G1 X53.639 Y183.308 E14.26769
G1 X52.017 Y180.826 E14.38504
G1 X51.971 Y180.756 E14.38836
G1 X51.287 Y179.679 E14.43886
G1 X51.24 Y179.603 E14.44239
G1 X50.316 Y178.102 E14.51216
G1 X50.284 Y178.05 E14.51457
G1 X49.849 Y177.328 E14.54794
G1 X49.821 Y177.281 E14.5501
G1 X48.711 Y175.403 E14.63644
G1 X48.676 Y175.343 E14.63919
G1 X48.107 Y174.356 E14.68428
G1 X48.072 Y174.294 E14.6871
G1 X47.612 Y173.475 E14.72428
G1 X47.58 Y173.417 E14.7269
G1 X46.999 Y172.357 E14.77475
G1 X46.963 Y172.291 E14.77772
G1 X46.541 Y171.499 E14.81324
G1 X46.495 Y171.411 E14.81717
G1 X45.868 Y170.189 E14.87153
G1 X45.828 Y170.11 E14.87504
G1 X44.554 Y167.54 E14.98857
G1 X44.511 Y167.452 E14.99245
G1 X43.828 Y166.02 E15.05524
G1 X43.783 Y165.923 E15.05947
G1 X42.678 Y163.503 E15.16477
G1 X42.648 Y163.436 E15.16767
G1 X42.219 Y162.467 E15.20962
G1 X42.186 Y162.392 E15.21286
G1 X40.67 Y158.846 E15.3655
G1 X40.632 Y158.755 E15.3694
G1 X40.44 Y158.286 E15.38946
G1 X40.425 Y158.249 E15.39104
G1 X39.388 Y155.67 E15.50106
G1 X39.367 Y155.616 E15.50335
G1 X39.051 Y154.809 E15.53765
G1 X39.032 Y154.76 E15.53973
G1 X38.227 Y152.654 E15.62897
G1 X38.205 Y152.597 E15.63139
G1 X37.843 Y151.622 E15.67255
G1 X37.821 Y151.561 E15.67512
G1 X36.744 Y148.568 E15.80102
G1 X36.71 Y148.472 E15.80505
G1 X36.474 Y147.782 E15.83391
G1 X36.281 Y147.094 E15.86219
G1 X36.148 Y146.189 E15.8984
G1 X36.131 Y145.962 E15.9074
G1 X36.117 Y145.247 E15.93571
G1 X36.223 Y144.303 E15.97331
G1 X36.284 Y143.978 E15.9864
G1 X36.334 Y143.736 E15.99618
G1 X36.943 Y141.066 E16.10457
G1 X37.467 Y138.435 E16.21075
G1 X37.897 Y135.881 E16.31326
G1 X38.274 Y133.204 E16.42026
G1 X38.562 Y130.621 E16.52312
G1 X38.783 Y127.958 E16.62889
G1 X38.927 Y125.344 E16.7325
G1 X38.997 Y122.673 E16.83826
G1 X38.992 Y120.025 E16.94306
G1 X38.913 Y117.385 E17.0476
G1 X38.758 Y114.745 E17.15227
G1 X38.53 Y112.119 E17.2566
G1 X38.221 Y109.445 E17.36314
G1 X37.849 Y106.868 E17.46619
G1 X37.397 Y104.262 E17.57088
G1 X36.873 Y101.674 E17.67539
G1 X36.465 Y99.931 E17.74624
G1 X36.45 Y99.862 E17.74903
G1 X36.283 Y99.111 E17.77948
G1 X36.146 Y98.178 E17.81681
G1 X36.129 Y97.94 E17.82625
G1 X36.118 Y97.225 E17.85455
G1 X36.223 Y96.303 E17.89128
G1 X36.284 Y95.978 E17.90437
G1 X36.334 Y95.736 E17.91415
G1 X36.943 Y93.066 E18.02254
G1 X37.467 Y90.435 E18.12872
G1 X37.897 Y87.881 E18.23123
G1 X38.274 Y85.204 E18.33823
G1 X38.562 Y82.621 E18.4411
G1 X38.783 Y79.958 E18.54686
G1 X38.927 Y77.344 E18.65048
G1 X38.997 Y74.673 E18.75623
G1 X38.992 Y72.025 E18.86104
G1 X38.913 Y69.385 E18.96557
G1 X38.758 Y66.745 E19.07024
G1 X38.53 Y64.119 E19.17457
G1 X38.221 Y61.445 E19.28111
G1 X37.849 Y58.868 E19.38417
G1 X37.397 Y56.262 E19.48885
G1 X36.871 Y53.666 E19.59369
G1 X36.454 Y51.881 E19.66624
G1 X36.438 Y51.812 E19.66904
G1 X36.282 Y51.11 E19.6975
G1 X36.146 Y50.178 E19.73478
G1 X36.129 Y49.94 E19.74423
G1 X36.118 Y49.225 E19.77253
G1 X36.187 Y48.513 E19.80084
G1 X36.4 Y47.588 E19.83841
G1 X36.458 Y47.401 E19.84616
G1 X36.708 Y46.731 E19.87447
G1 X36.956 Y46.226 E19.89673
G1 X37.026 Y46.098 E19.90251
G1 X37.404 Y45.491 E19.93081
G1 X37.847 Y44.929 E19.95913
G1 X38.35 Y44.421 E19.98743
M204 S3000
M205 X10 Y10
G0 F1200 X38.794 Y44.775
M204 S1800
M205 X8 Y8
G1 F2400 X39.53 Y44.227 E20.02375
G1 X39.754 Y44.086 E20.03422
G1 X40.352 Y43.756 E20.06126
G1 X40.985 Y43.499 E20.0883
G1 X41.644 Y43.317 E20.11536
G1 X42.417 Y43.205 E20.14627
G1 X45.303 Y42.983 E20.26083
G1 X47.967 Y42.71 E20.36683
G1 X50.608 Y42.365 E20.47224
G1 X53.255 Y41.941 E20.57835
G1 X55.842 Y41.452 E20.68255
G1 X58.442 Y40.884 E20.78789
G1 X61.028 Y40.242 E20.89335
G1 X63.624 Y39.519 E21
G1 X66.14 Y38.741 E21.10424
G1 X68.686 Y37.873 E21.2107
G1 X71.162 Y36.951 E21.31528
G1 X73.638 Y35.949 E21.421
G1 X76.079 Y34.878 E21.5265
G1 X78.469 Y33.749 E21.63112
G1 X80.932 Y32.499 E21.74044
G1 X82.16 Y31.851 E21.79539
G1 X82.782 Y31.568 E21.82244
G1 X83.433 Y31.359 E21.8495
G1 X84.104 Y31.229 E21.87655
G1 X84.758 Y31.177 E21.90252
G1 X85.034 Y31.171 E21.91345
G1 X85.717 Y31.197 E21.9405
G1 X86.261 Y31.275 E21.96225
G1 X87.075 Y31.431 E21.99506
G1 X89.795 Y31.918 E22.10442
G1 X92.419 Y32.311 E22.20944
G1 X95.046 Y32.631 E22.31418
G1 X97.706 Y32.877 E22.41991
G1 X100.374 Y33.048 E22.52573
G1 X103.013 Y33.143 E22.63025
G1 X105.687 Y33.163 E22.73609
G1 X108.364 Y33.107 E22.84206
G1 X111.029 Y32.977 E22.94767
G1 X113.634 Y32.775 E23.05108
G1 X116.333 Y32.489 E23.15851
G1 X118.94 Y32.138 E23.26262
G1 X122.867 Y31.47 E23.42028
G1 X123.694 Y31.311 E23.45361
G1 X124.371 Y31.221 E23.48065
G1 X124.713 Y31.207 E23.49419
G1 X125.002 Y31.203 E23.50563
G1 X125.685 Y31.233 E23.53269
G1 X126.359 Y31.343 E23.55972
G1 X127.016 Y31.531 E23.58677
G1 X127.665 Y31.804 E23.61464
G1 X127.947 Y31.943 E23.62708
G1 X128.068 Y32.004 E23.63244
G1 X130.492 Y33.27 E23.74068
G1 X132.899 Y34.442 E23.84664
G1 X135.321 Y35.537 E23.95185
G1 X137.825 Y36.587 E24.05931
G1 X140.241 Y37.516 E24.16176
G1 X142.776 Y38.413 E24.26819
G1 X145.3 Y39.226 E24.37315
G1 X147.893 Y39.98 E24.48003
G1 X150.423 Y40.639 E24.58351
G1 X153.051 Y41.247 E24.69027
G1 X155.654 Y41.768 E24.79534
G1 X158.298 Y42.222 E24.90152
G1 X160.882 Y42.591 E25.00483
G1 X163.566 Y42.897 E25.11175
G1 X166.337 Y43.134 E25.22182
G1 X167.508 Y43.217 E25.26829
G1 X168.185 Y43.305 E25.29531
G1 X168.848 Y43.472 E25.32237
G1 X169.486 Y43.715 E25.34939
G1 X170.169 Y44.077 E25.37998
G1 X170.437 Y44.243 E25.39246
G1 X170.996 Y44.636 E25.41951
G1 X171.505 Y45.092 E25.44656
G1 X171.957 Y45.604 E25.47359
G1 X172.493 Y46.418 E25.51216
G1 X172.611 Y46.635 E25.52194
G1 X172.901 Y47.253 E25.54896
G1 X173.118 Y47.901 E25.57601
G1 X173.257 Y48.57 E25.60305
G1 X173.319 Y49.508 E25.64026
G1 X173.315 Y49.789 E25.65138
G1 X173.266 Y50.471 E25.67844
G1 X173.16 Y51.048 E25.70166
G1 X173.032 Y51.59 E25.7237
G1 X172.442 Y54.216 E25.83023
G1 X171.93 Y56.834 E25.93581
G1 X171.498 Y59.447 E26.04064
G1 X171.136 Y62.088 E26.14615
G1 X170.847 Y64.757 E26.2524
G1 X170.637 Y67.383 E26.35667
G1 X170.5 Y70.053 E26.46249
G1 X170.439 Y72.693 E26.567
G1 X170.454 Y75.367 E26.67284
G1 X170.544 Y78.047 E26.77897
G1 X170.707 Y80.706 E26.88441
G1 X170.946 Y83.341 E26.98913
G1 X171.262 Y86.001 E27.09516
G1 X171.648 Y88.612 E27.19962
G1 X172.112 Y91.243 E27.30536
G1 X172.644 Y93.824 E27.40966
G1 X173.066 Y95.615 E27.48249
G1 X173.082 Y95.69 E27.48553
G1 X173.19 Y96.177 E27.50527
G1 X173.299 Y96.851 E27.53229
G1 X173.323 Y97.713 E27.56643
G1 X173.312 Y97.949 E27.57578
G1 X173.24 Y98.628 E27.6028
G1 X173.011 Y99.544 E27.64017
G1 X172.682 Y100.519 E27.6809
G1 X172.643 Y100.632 E27.68563
G1 X171.642 Y103.41 E27.8025
G1 X171.622 Y103.464 E27.80478
G1 X171.285 Y104.371 E27.84308
G1 X171.264 Y104.427 E27.84545
G1 X170.514 Y106.384 E27.9284
G1 X170.497 Y106.429 E27.9303
G1 X170.171 Y107.259 E27.9656
G1 X170.154 Y107.302 E27.96743
G1 X169.172 Y109.745 E28.07164
G1 X169.149 Y109.801 E28.07403
G1 X168.74 Y110.789 E28.11636
G1 X168.719 Y110.84 E28.11854
G1 X167.516 Y113.67 E28.24025
G1 X167.498 Y113.711 E28.24202
G1 X167.185 Y114.432 E28.27313
G1 X167.155 Y114.499 E28.27604
G1 X166.969 Y114.913 E28.294
G1 X166.955 Y114.945 E28.29538
G1 X165.69 Y117.717 E28.41598
G1 X165.652 Y117.798 E28.41952
G1 X165.041 Y119.084 E28.47588
G1 X165.003 Y119.162 E28.47931
G1 X163.81 Y121.58 E28.58603
G1 X163.781 Y121.639 E28.58863
G1 X163.212 Y122.76 E28.63839
G1 X163.175 Y122.831 E28.64156
G1 X162.667 Y123.799 E28.68482
G1 X162.636 Y123.858 E28.68746
G1 X162.048 Y124.948 E28.73648
G1 X162.013 Y125.011 E28.73933
G1 X161.522 Y125.895 E28.77936
G1 X161.492 Y125.948 E28.78177
G1 X160.982 Y126.844 E28.82257
G1 X160.949 Y126.902 E28.82521
G1 X159.886 Y128.721 E28.9086
G1 X159.855 Y128.773 E28.911
G1 X159.329 Y129.652 E28.95154
G1 X159.3 Y129.7 E28.95376
